FINK
CUT[TREULIEB IST NIMMER WEIT]
REG[Europa, Mitteleuropa, Deutschland]
KEY[F0908  16 Eb 6/8]
MEL[5_  3__3_5_.432  1___0_
    1_  +1_7_6_6_5_4#_  5__.
    3_+1_6_  5__+176__76  5___0_
    6_  5_4_3_5_4_3_  4___.
    3__5_5_4_4_  3_5_+1_+1_7_7_
    +1__7b_6__.  6_5_-7_1__ //] >>
FCT[Liebes - Lied]
